assets/icons/qvision/transfer_within_a_station.svg

<svg xmlns="http://www.w3.org/2000/svg" height="24" viewBox="0 0 24 24" width="24"><path d="M0 0h24v24H0z" fill="none"/><path d="M16.49 15.5v-1.75L14 16.25l2.49 2.5V17H22v-1.5zm3.02 4.25H14v1.5h5.51V23L22 20.5 19.51 18zM9.5 5.5c1.1 0 2-.9 2-2s-.9-2-2-2-2 .9-2 2 .9 2 2 2zM5.75 8.9L3 23h2.1l1.75-8L9 17v6h2v-7.55L8.95 13.4l.6-3C10.85 12 12.8 13 15 13v-2c-1.85 0-3.45-1-4.35-2.45l-.95-1.6C9.35 6.35 8.7 6 8 6c-.25 0-.5.05-.75.15L2 8.3V13h2V9.65l1.75-.75"/></svg>

<svg width="24" height="24" viewBox="0 0 24 24" fill="none" xmlns="http://www.w3.org/2000/svg">
<g clip-path="url(#clip0_147_5668)">
<path d="M16.49 15.5V13.75L14 16.25L16.49 18.75V17H22V15.5H16.49ZM19.51 19.75H14V21.25H19.51V23L22 20.5L19.51 18V19.75ZM9.5 5.5C10.6 5.5 11.5 4.6 11.5 3.5C11.5 2.4 10.6 1.5 9.5 1.5C8.4 1.5 7.5 2.4 7.5 3.5C7.5 4.6 8.4 5.5 9.5 5.5ZM5.75 8.9L3 23H5.1L6.85 15L9 17V23H11V15.45L8.95 13.4L9.55 10.4C10.85 12 12.8 13 15 13V11C13.15 11 11.55 10 10.65 8.55L9.7 6.95C9.35 6.35 8.7 6 8 6C7.75 6 7.5 6.05 7.25 6.15L2 8.3V13H4V9.65L5.75 8.9Z" fill="#323232"/>
</g>
<defs>
<clipPath id="clip0_147_5668">
<rect width="24" height="24" fill="white"/>
</clipPath>
</defs>
</svg>
